src/assets/dark/NoResults.svg

<svg width="242" height="204" viewBox="0 0 242 204" fill="none" xmlns="http://www.w3.org/2000/svg">
<circle cx="141.017" cy="100.502" r="100.502" fill="#131143"/>
<path fill-rule="evenodd" clip-rule="evenodd" d="M197.851 150.605L199.651 149.575L197.811 148.615L196.791 146.815L195.821 148.645L194.021 149.675L195.861 150.645L196.891 152.445L197.851 150.605Z" fill="#403D85"/>
<path d="M218.463 89.8359C218.943 89.8359 218.943 90.5859 218.463 90.5859C217.973 90.5859 217.973 89.8359 218.463 89.8359Z" fill="#403D85"/>
<path d="M207.373 80.8281C207.853 80.8281 207.853 81.5781 207.373 81.5781C206.893 81.5781 206.893 80.8281 207.373 80.8281Z" fill="#403D85"/>
<path d="M230.243 76.4375C230.723 76.4375 230.723 77.1875 230.243 77.1875C229.763 77.1875 229.763 76.4375 230.243 76.4375Z" fill="#403D85"/>
<path d="M219.153 76.8984C219.633 76.8984 219.633 77.6484 219.153 77.6484C218.673 77.6484 218.673 76.8984 219.153 76.8984Z" fill="#403D85"/>
<path fill-rule="evenodd" clip-rule="evenodd" d="M209.913 90.437L210.823 89.917L209.893 89.437L209.373 88.517L208.883 89.447L207.973 89.977L208.903 90.457L209.423 91.377L209.913 90.437Z" fill="#403D85"/>
<path fill-rule="evenodd" clip-rule="evenodd" d="M220.623 71.7084L221.543 71.1884L220.603 70.6984L220.083 69.7884L219.593 70.7184L218.683 71.2384L219.613 71.7284L220.133 72.6484L220.623 71.7084Z" fill="#403D85"/>
<path fill-rule="evenodd" clip-rule="evenodd" d="M226.033 101.027L227.833 99.9972L225.993 99.0372L224.973 97.2372L224.003 99.0672L222.203 100.097L224.043 101.067L225.073 102.867L226.033 101.027Z" fill="#403D85"/>
<path d="M75.45 50.0312C75.93 50.0312 75.93 49.2812 75.45 49.2812C74.96 49.2812 74.96 50.0312 75.45 50.0312Z" fill="#403D85"/>
<path d="M64.36 59.0391C64.84 59.0391 64.84 58.2891 64.36 58.2891C63.88 58.2891 63.88 59.0391 64.36 59.0391Z" fill="#403D85"/>
<path d="M87.2299 63.4297C87.7099 63.4297 87.7099 62.6797 87.2299 62.6797C86.7499 62.6797 86.7499 63.4297 87.2299 63.4297Z" fill="#403D85"/>
<path d="M76.14 62.9688C76.62 62.9688 76.62 62.2188 76.14 62.2188C75.66 62.2188 75.66 62.9688 76.14 62.9688Z" fill="#403D85"/>
<path fill-rule="evenodd" clip-rule="evenodd" d="M66.9 49.4302L67.81 49.9502L66.88 50.4302L66.36 51.3502L65.87 50.4202L64.96 49.8902L65.89 49.4102L66.41 48.4902L66.9 49.4302Z" fill="#403D85"/>
<path fill-rule="evenodd" clip-rule="evenodd" d="M77.6099 68.1588L78.5299 68.6788L77.5899 69.1688L77.0699 70.0788L76.5799 69.1488L75.6699 68.6288L76.5999 68.1388L77.1199 67.2188L77.6099 68.1588Z" fill="#403D85"/>
<path fill-rule="evenodd" clip-rule="evenodd" d="M83.0199 38.84L84.8199 39.87L82.9799 40.83L81.9599 42.63L80.9899 40.8L79.1899 39.77L81.0299 38.8L82.0599 37L83.0199 38.84Z" fill="#403D85"/>
<path d="M77.4129 155.539C77.8929 155.539 77.8929 154.789 77.4129 154.789C76.9229 154.789 76.9229 155.539 77.4129 155.539Z" fill="#403D85"/>
<path d="M66.3229 164.551C66.8029 164.551 66.8029 163.801 66.3229 163.801C65.8429 163.801 65.8429 164.551 66.3229 164.551Z" fill="#403D85"/>
<path d="M89.1928 168.939C89.6728 168.939 89.6728 168.189 89.1928 168.189C88.7128 168.189 88.7128 168.939 89.1928 168.939Z" fill="#403D85"/>
<path d="M78.1029 168.48C78.5829 168.48 78.5829 167.73 78.1029 167.73C77.6229 167.73 77.6229 168.48 78.1029 168.48Z" fill="#403D85"/>
<path d="M108.833 180.029C109.313 180.029 109.313 179.279 108.833 179.279C108.343 179.279 108.343 180.029 108.833 180.029Z" fill="#403D85"/>
<path d="M108.593 170.1C109.073 170.1 109.073 169.35 108.593 169.35C108.113 169.35 108.113 170.1 108.593 170.1Z" fill="#403D85"/>
<path d="M99.5829 165.01C100.063 165.01 100.063 164.26 99.5829 164.26C99.1029 164.26 99.1029 165.01 99.5829 165.01Z" fill="#403D85"/>
<path d="M118.533 183.961C119.013 183.961 119.013 183.211 118.533 183.211C118.053 183.211 118.043 183.961 118.533 183.961Z" fill="#403D85"/>
<path fill-rule="evenodd" clip-rule="evenodd" d="M68.8629 154.94L69.7729 155.46L68.8429 155.94L68.3229 156.86L67.8329 155.93L66.9229 155.4L67.8529 154.92L68.3729 154L68.8629 154.94Z" fill="#403D85"/>
<path fill-rule="evenodd" clip-rule="evenodd" d="M115.853 175.26L116.763 175.78L115.833 176.27L115.313 177.18L114.823 176.25L113.913 175.73L114.843 175.24L115.363 174.33L115.853 175.26Z" fill="#403D85"/>
<path fill-rule="evenodd" clip-rule="evenodd" d="M96.94 176.94L97.86 177.46L96.92 177.95L96.4 178.86L95.91 177.93L95 177.41L95.93 176.92L96.45 176L96.94 176.94Z" fill="#403D85"/>
<path fill-rule="evenodd" clip-rule="evenodd" d="M38.83 159.25L40.63 160.28L38.79 161.24L37.77 163.04L36.8 161.21L35 160.18L36.84 159.21L37.87 157.41L38.83 159.25Z" fill="#403D85"/>
<path d="M152.413 15.5391C152.893 15.5391 152.893 14.7891 152.413 14.7891C151.923 14.7891 151.923 15.5391 152.413 15.5391Z" fill="#403D85"/>
<path d="M141.323 24.5508C141.803 24.5508 141.803 23.8008 141.323 23.8008C140.843 23.8008 140.843 24.5508 141.323 24.5508Z" fill="#403D85"/>
<path d="M164.193 28.9395C164.673 28.9395 164.673 28.1895 164.193 28.1895C163.713 28.1895 163.713 28.9395 164.193 28.9395Z" fill="#403D85"/>
<path d="M153.103 28.4805C153.583 28.4805 153.583 27.7305 153.103 27.7305C152.623 27.7305 152.623 28.4805 153.103 28.4805Z" fill="#403D85"/>
<path d="M183.833 40.0293C184.313 40.0293 184.313 39.2793 183.833 39.2793C183.343 39.2793 183.343 40.0293 183.833 40.0293Z" fill="#403D85"/>
<path d="M183.593 30.0996C184.073 30.0996 184.073 29.3496 183.593 29.3496C183.113 29.3496 183.113 30.0996 183.593 30.0996Z" fill="#403D85"/>
<path d="M174.583 25.0098C175.063 25.0098 175.063 24.2598 174.583 24.2598C174.103 24.2598 174.103 25.0098 174.583 25.0098Z" fill="#403D85"/>
<path d="M193.533 43.9609C194.013 43.9609 194.013 43.2109 193.533 43.2109C193.053 43.2109 193.043 43.9609 193.533 43.9609Z" fill="#403D85"/>
<path fill-rule="evenodd" clip-rule="evenodd" d="M143.863 14.94L144.773 15.46L143.843 15.94L143.323 16.86L142.833 15.93L141.923 15.4L142.853 14.92L143.373 14L143.863 14.94Z" fill="#403D85"/>
<path fill-rule="evenodd" clip-rule="evenodd" d="M190.853 35.2601L191.763 35.7801L190.833 36.2701L190.313 37.1801L189.823 36.2501L188.913 35.7301L189.843 35.2401L190.363 34.3301L190.853 35.2601Z" fill="#403D85"/>
<path fill-rule="evenodd" clip-rule="evenodd" d="M154.573 33.6705L155.493 34.1905L154.553 34.6805L154.033 35.5905L153.543 34.6605L152.633 34.1405L153.563 33.6505L154.083 32.7305L154.573 33.6705Z" fill="#403D85"/>
<circle opacity="0.8" cx="173.487" cy="184.487" r="1.48701" fill="#403D85"/>
<circle opacity="0.8" cx="208.5" cy="118.003" r="1.48701" fill="#403D85"/>
<path d="M5.36196 155.395L46.1478 119.965L75.1078 170.783C75.1078 170.783 25.728 186.835 24.4917 187.124C23.0134 187.466 21.4613 187.641 19.8554 187.641C8.88957 187.634 0 179.061 0 168.485C0 163.425 2.03593 158.822 5.36196 155.395Z" fill="url(#paint0_linear)"/>
<path d="M44.7772 118.311L114.792 57.4883L164.507 144.718C164.507 144.718 79.7441 172.273 77.6208 172.764C75.081 173.348 72.4269 173.651 69.6585 173.651C50.8312 173.651 35.5651 158.929 35.5651 140.773C35.5651 132.092 39.0658 124.19 44.7772 118.311Z" fill="url(#paint1_linear)"/>
<path d="M179.962 107.811C179.962 80.3289 156.861 58.0479 128.358 58.0479C123.365 58.0479 118.541 58.7333 113.979 60.0099L111.358 56.7578L97.0394 68.2612V68.2679C84.7163 77.359 76.7607 91.6912 76.7607 107.811C76.7607 135.292 99.8615 157.573 128.365 157.573C136.038 157.573 143.322 155.954 149.873 153.058L161.9 148.086L159.905 147.199C172.107 138.094 179.962 123.836 179.962 107.811Z" fill="#171550"/>
<path opacity="0.8" d="M44.9317 133.633C44.9317 125.637 47.5119 118.226 51.9063 112.125L44.7772 118.32C39.0658 124.199 35.5718 132.101 35.5718 140.789C35.5718 158.945 50.8379 173.667 69.6653 173.667C72.4269 173.667 75.081 173.364 77.6276 172.78C77.8963 172.719 79.5291 172.209 82.1631 171.375C61.4274 170.381 44.9317 153.865 44.9317 133.633Z" fill="#141246"/>
<path opacity="0.8" d="M5.50994 164.144C5.50994 159.467 7.01927 155.131 9.58986 151.562L5.41954 155.186C2.07856 158.626 0.034668 163.248 0.034668 168.33C0.034668 178.951 8.9649 187.562 19.9783 187.562C21.5938 187.562 23.1464 187.386 24.636 187.044C24.7933 187.008 25.7484 186.71 27.2892 186.222C15.1595 185.64 5.50994 175.979 5.50994 164.144Z" fill="#131140"/>
<path d="M143.214 151.485C172.33 151.485 195.933 127.882 195.933 98.7661C195.933 69.6501 172.33 46.0469 143.214 46.0469C114.098 46.0469 90.4949 69.6501 90.4949 98.7661C90.4949 127.882 114.098 151.485 143.214 151.485Z" fill="#1E1B68"/>
<path d="M143.214 146.929C169.814 146.929 191.378 125.365 191.378 98.7652C191.378 72.1651 169.814 50.6016 143.214 50.6016C116.614 50.6016 95.0505 72.1651 95.0505 98.7652C95.0505 125.365 116.614 146.929 143.214 146.929Z" fill="url(#paint2_linear)"/>
<path d="M152.932 131.969C156.409 128.743 159.26 124.732 161.185 120.059C168.308 102.773 160.069 82.9869 142.783 75.8646C135.307 72.7841 127.363 72.5771 120.178 74.7328C129.563 66.0258 143.507 63.0442 156.119 68.2412C173.405 75.3636 181.644 95.15 174.521 112.435C170.479 122.245 162.359 129.141 152.932 131.969Z" fill="#6E6BCD"/>
<g clip-path="url(#clip0)">
<path fill-rule="evenodd" clip-rule="evenodd" d="M120.249 198.809L141.926 152.145V151.562H144.941V152.166L166.179 197.885C165.185 198.138 164.185 198.377 163.179 198.601L144.941 159.327V200.937C143.94 200.973 142.935 200.995 141.926 201.002V159.306L123.304 199.409C122.28 199.224 121.262 199.024 120.249 198.809Z" fill="#1E1B68"/>
</g>
<path d="M122.292 92.1074L124.407 97.467C124.439 97.5466 124.527 97.5863 124.606 97.5625L130.117 95.8766C130.26 95.8369 130.379 95.988 130.3 96.1072L127.429 101.101C127.389 101.173 127.405 101.268 127.477 101.316L132.232 104.568C132.352 104.648 132.312 104.839 132.169 104.862L126.475 105.729C126.395 105.745 126.332 105.817 126.34 105.896L126.761 111.638C126.769 111.781 126.602 111.868 126.491 111.765L122.26 107.852C122.197 107.797 122.101 107.797 122.046 107.852L117.815 111.765C117.712 111.86 117.537 111.781 117.545 111.638L117.966 105.896C117.974 105.809 117.911 105.737 117.831 105.729L112.137 104.862C111.994 104.839 111.947 104.656 112.074 104.568L116.829 101.316C116.901 101.268 116.917 101.173 116.877 101.101L114.006 96.1072C113.935 95.98 114.054 95.8289 114.189 95.8766L119.7 97.5625C119.779 97.5863 119.867 97.5466 119.899 97.467L122.014 92.1074C122.046 91.9642 122.237 91.9642 122.292 92.1074Z" fill="#6E6BCD"/>
<path d="M138.113 107.723L139.441 110.41L142.415 110.848L140.268 112.939L140.769 115.897L138.113 114.498L135.457 115.897L135.966 112.939L133.819 110.848L136.785 110.41L138.113 107.723Z" fill="#6E6BCD"/>
<path d="M123.127 122.296C124.443 122.296 125.511 121.229 125.511 119.912C125.511 118.595 124.443 117.527 123.127 117.527C121.81 117.527 120.742 118.595 120.742 119.912C120.742 121.229 121.81 122.296 123.127 122.296Z" fill="#6E6BCD"/>
<defs>
<linearGradient id="paint0_linear" x1="25.8829" y1="148.519" x2="25.8829" y2="202.118" gradientUnits="userSpaceOnUse">
<stop offset="0.000490735" stop-color="#1B1868"/>
<stop offset="1" stop-color="#1C1C4F"/>
</linearGradient>
<linearGradient id="paint1_linear" x1="80" y1="106.5" x2="80" y2="198.5" gradientUnits="userSpaceOnUse">
<stop offset="0.000490735" stop-color="#1E1B6D"/>
<stop offset="1" stop-color="#1C1C4F"/>
</linearGradient>
<linearGradient id="paint2_linear" x1="74.5" y1="160.5" x2="324.12" y2="13.3803" gradientUnits="userSpaceOnUse">
<stop stop-color="#211E74"/>
<stop offset="1" stop-color="#7C78DC"/>
</linearGradient>
<clipPath id="clip0">
<rect width="50.297" height="51.4945" fill="white" transform="translate(118.066 151.562)"/>
</clipPath>
</defs>
</svg>

<svg width="242" height="204" fill="none" xmlns="http://www.w3.org/2000/svg"><circle cx="141.017" cy="100.502" r="100.502" fill="#131143"/><path fill-rule="evenodd" clip-rule="evenodd" d="M197.851 150.605l1.8-1.03-1.84-.96-1.02-1.8-.97 1.83-1.8 1.03 1.84.97 1.03 1.8.96-1.84z" fill="#403D85"/><path d="M218.463 89.836c.48 0 .48.75 0 .75-.49 0-.49-.75 0-.75zM207.373 80.828c.48 0 .48.75 0 .75s-.48-.75 0-.75zM230.243 76.438c.48 0 .48.75 0 .75s-.48-.75 0-.75zM219.153 76.898c.48 0 .48.75 0 .75s-.48-.75 0-.75z" fill="#403D85"/><path fill-rule="evenodd" clip-rule="evenodd" d="M209.913 90.437l.91-.52-.93-.48-.52-.92-.49.93-.91.53.93.48.52.92.49-.94zM220.623 71.708l.92-.52-.94-.49-.52-.91-.49.93-.91.52.93.49.52.92.49-.94zM226.033 101.027l1.8-1.03-1.84-.96-1.02-1.8-.97 1.83-1.8 1.03 1.84.97 1.03 1.8.96-1.84z" fill="#403D85"/><path d="M75.45 50.031c.48 0 .48-.75 0-.75-.49 0-.49.75 0 .75zM64.36 59.04c.48 0 .48-.75 0-.75s-.48.75 0 .75zM87.23 63.43c.48 0 .48-.75 0-.75s-.48.75 0 .75zM76.14 62.969c.48 0 .48-.75 0-.75s-.48.75 0 .75z" fill="#403D85"/><path fill-rule="evenodd" clip-rule="evenodd" d="M66.9 49.43l.91.52-.93.48-.52.92-.49-.93-.91-.53.93-.48.52-.92.49.94zM77.61 68.159l.92.52-.94.49-.52.91-.49-.93-.91-.52.93-.49.52-.92.49.94zM83.02 38.84l1.8 1.03-1.84.96-1.02 1.8-.97-1.83-1.8-1.03 1.84-.97 1.03-1.8.96 1.84z" fill="#403D85"/><path d="M77.413 155.539c.48 0 .48-.75 0-.75-.49 0-.49.75 0 .75zM66.323 164.551c.48 0 .48-.75 0-.75s-.48.75 0 .75zM89.193 168.939c.48 0 .48-.75 0-.75s-.48.75 0 .75zM78.103 168.48c.48 0 .48-.75 0-.75s-.48.75 0 .75zM108.833 180.029c.48 0 .48-.75 0-.75-.49 0-.49.75 0 .75zM108.593 170.1c.48 0 .48-.75 0-.75s-.48.75 0 .75zM99.583 165.01c.48 0 .48-.75 0-.75s-.48.75 0 .75zM118.533 183.961c.48 0 .48-.75 0-.75s-.49.75 0 .75z" fill="#403D85"/><path fill-rule="evenodd" clip-rule="evenodd" d="M68.863 154.94l.91.52-.93.48-.52.92-.49-.93-.91-.53.93-.48.52-.92.49.94zM115.853 175.26l.91.52-.93.49-.52.91-.49-.93-.91-.52.93-.49.52-.91.49.93zM96.94 176.94l.92.52-.94.49-.52.91-.49-.93-.91-.52.93-.49.52-.92.49.94zM38.83 159.25l1.8 1.03-1.84.96-1.02 1.8-.97-1.83-1.8-1.03 1.84-.97 1.03-1.8.96 1.84z" fill="#403D85"/><path d="M152.413 15.54c.48 0 .48-.75 0-.75-.49 0-.49.75 0 .75zM141.323 24.55c.48 0 .48-.75 0-.75s-.48.75 0 .75zM164.193 28.94c.48 0 .48-.75 0-.75s-.48.75 0 .75zM153.103 28.48c.48 0 .48-.75 0-.75s-.48.75 0 .75zM183.833 40.03c.48 0 .48-.75 0-.75-.49 0-.49.75 0 .75zM183.593 30.1c.48 0 .48-.75 0-.75s-.48.75 0 .75zM174.583 25.01c.48 0 .48-.75 0-.75s-.48.75 0 .75zM193.533 43.96c.48 0 .48-.75 0-.75s-.49.75 0 .75z" fill="#403D85"/><path fill-rule="evenodd" clip-rule="evenodd" d="M143.863 14.94l.91.52-.93.48-.52.92-.49-.93-.91-.53.93-.48.52-.92.49.94zM190.853 35.26l.91.52-.93.49-.52.91-.49-.93-.91-.52.93-.49.52-.91.49.93zM154.573 33.67l.92.52-.94.49-.52.91-.49-.93-.91-.52.93-.49.52-.92.49.94z" fill="#403D85"/><circle opacity=".8" cx="173.487" cy="184.487" r="1.487" fill="#403D85"/><circle opacity=".8" cx="208.5" cy="118.003" r="1.487" fill="#403D85"/><path d="M5.362 155.395l40.786-35.43 28.96 50.818s-49.38 16.052-50.616 16.341c-1.479.342-3.03.517-4.637.517C8.89 187.634 0 179.061 0 168.485c0-5.06 2.036-9.663 5.362-13.09z" fill="url(#paint0_linear)"/><path d="M44.777 118.311l70.015-60.823 49.715 87.23s-84.763 27.555-86.886 28.046c-2.54.584-5.194.887-7.962.887-18.828 0-34.094-14.722-34.094-32.878 0-8.681 3.5-16.583 9.212-22.462z" fill="url(#paint1_linear)"/><path d="M179.962 107.811c0-27.482-23.101-49.763-51.604-49.763-4.993 0-9.817.685-14.379 1.962l-2.621-3.252L97.039 68.26v.007C84.716 77.359 76.761 91.69 76.761 107.81c0 27.481 23.1 49.762 51.604 49.762 7.673 0 14.957-1.619 21.508-4.515l12.027-4.972-1.995-.887c12.202-9.105 20.057-23.363 20.057-39.388z" fill="#171550"/><path opacity=".8" d="M44.932 133.633c0-7.996 2.58-15.407 6.974-21.508l-7.129 6.195c-5.711 5.879-9.205 13.781-9.205 22.469 0 18.156 15.266 32.878 34.093 32.878 2.762 0 5.416-.303 7.963-.887.268-.061 1.901-.571 4.535-1.405-20.736-.994-37.231-17.51-37.231-37.742z" fill="#141246"/><path opacity=".8" d="M5.51 164.144c0-4.677 1.51-9.013 4.08-12.582l-4.17 3.624c-3.341 3.44-5.385 8.062-5.385 13.144 0 10.621 8.93 19.232 19.943 19.232 1.616 0 3.168-.176 4.658-.518.157-.036 1.112-.334 2.653-.822-12.13-.582-21.78-10.243-21.78-22.078z" fill="#131140"/><path d="M143.214 151.485c29.116 0 52.719-23.603 52.719-52.719s-23.603-52.72-52.719-52.72-52.72 23.604-52.72 52.72 23.604 52.719 52.72 52.719z" fill="#1E1B68"/><path d="M143.214 146.929c26.6 0 48.164-21.564 48.164-48.164s-21.564-48.163-48.164-48.163-48.163 21.563-48.163 48.163c0 26.6 21.563 48.164 48.163 48.164z" fill="url(#paint2_linear)"/><path d="M152.932 131.969a33.715 33.715 0 008.253-11.91c7.123-17.286-1.116-37.072-18.402-44.194a33.71 33.71 0 00-22.605-1.132c9.385-8.707 23.329-11.689 35.941-6.492 17.286 7.123 25.525 26.909 18.402 44.194-4.042 9.81-12.162 16.706-21.589 19.534z" fill="#6E6BCD"/><g clip-path="url(#clip0)"><path fill-rule="evenodd" clip-rule="evenodd" d="M120.249 198.809l21.677-46.664v-.583h3.015v.604l21.238 45.719c-.994.253-1.994.492-3 .716l-18.238-39.274v41.61c-1.001.036-2.006.058-3.015.065v-41.696l-18.622 40.103a102.39 102.39 0 01-3.055-.6z" fill="#1E1B68"/></g><path d="M122.292 92.107l2.115 5.36c.032.08.12.12.199.096l5.511-1.686c.143-.04.262.111.183.23l-2.871 4.994a.163.163 0 00.048.215l4.755 3.252c.12.08.08.271-.063.294l-5.694.867c-.08.016-.143.088-.135.167l.421 5.742a.16.16 0 01-.27.127l-4.231-3.913c-.063-.055-.159-.055-.214 0l-4.231 3.913c-.103.095-.278.016-.27-.127l.421-5.742a.152.152 0 00-.135-.167l-5.694-.867a.16.16 0 01-.063-.294l4.755-3.252a.163.163 0 00.048-.215l-2.871-4.994c-.071-.127.048-.278.183-.23l5.511 1.686a.164.164 0 00.199-.096l2.115-5.36c.032-.143.223-.143.278 0zM138.113 107.723l1.328 2.687 2.974.438-2.147 2.091.501 2.958-2.656-1.399-2.656 1.399.509-2.958-2.147-2.091 2.966-.438 1.328-2.687zM123.127 122.296a2.384 2.384 0 100-4.768 2.384 2.384 0 000 4.768z" fill="#6E6BCD"/><defs><linearGradient id="paint0_linear" x1="25.883" y1="148.519" x2="25.883" y2="202.118" gradientUnits="userSpaceOnUse"><stop offset="0" stop-color="#1B1868"/><stop offset="1" stop-color="#1C1C4F"/></linearGradient><linearGradient id="paint1_linear" x1="80" y1="106.5" x2="80" y2="198.5" gradientUnits="userSpaceOnUse"><stop offset="0" stop-color="#1E1B6D"/><stop offset="1" stop-color="#1C1C4F"/></linearGradient><linearGradient id="paint2_linear" x1="74.5" y1="160.5" x2="324.12" y2="13.38" gradientUnits="userSpaceOnUse"><stop stop-color="#211E74"/><stop offset="1" stop-color="#7C78DC"/></linearGradient><clipPath id="clip0"><path fill="#fff" transform="translate(118.066 151.562)" d="M0 0h50.297v51.495H0z"/></clipPath></defs></svg>
